X: 1
T:Jig and Song Air
R:jig/song air
N:See #251 for history
B:Joyce, P. W.; "Old Irish Folk Music and Songs"
A:Tipperary
L:1/8
M:6/8
K:D
A|\
dfd ecA|dcB AFD|GBG EAF|GEE E2 A|
dfd ecA|dcB AFD|DFA GEA|FDD D2::A|
AFA dcd|fdf ecA|AFA eAF|GEE E2 G|
AFA dcd|fdf gfe|dfA gfe|fdd d2:|
